X: 21347
T: Kerrera, The
R: polka
M: 2/4
K: Dmajor
|:(3A/B/A/) F/>A/ dA/>d/|f/A/d/>f/ af/>a/|gB/>g/ fA/>f/|e/>d/c/>d eA|
(3A/B/A/) F/>A/ dA/>d/|f/A/d/>f/ a>f|gB c/>d/e/>c/|1 dD D z:|2 dd d||
K:A
|:(3e/e/e/)|ea ca|gf d>d|dg B>g|fe c>d|
ea ca|fd F2|E/>F/G/>A/ B/>d/c/>B/|1 Aa A:|2 dd d||
K:F
|:Ac a/>c/d/>c/|Ac a/>c/d/>c/|Bc g/>c/d/>c/|Bc g/>c/d/>c/|
Ac a/>c/d/>c/|Ac a2|d/>e/f/>d/ e/>f/g/>e/|ff f z:|
K:A
|:(3E/F/E/) C/>E/ A2|cA/>f/ e2|e/>d/F/>d/ d/>c/E/>c/|B/>A/G/>A/ BE|
(3E/F/E/) C/>E/ A2|cA/>f/ e2|e/>d/F/>d/ c/>B/A/>G/|Aa A z:|
K:D
|:(3A/B/A/) F/>A/ dA/>d/|f/A/d/>f/ af/>a/|gB/>g/ fA/>f/|e/>d/c/>d eA|
(3A/B/A/) F/>A/ dA/>d/|f/A/d/>f/ a>f|gB c/>d/e/>c/|dD D z:|

